packages/sources/icons/src/vitamix/shopping-cart-fill.svg

<svg width="16" height="16" viewBox="0 0 16 16" xmlns="http://www.w3.org/2000/svg"><path d="M3.31048 1.82651C3.23312 1.5386 2.97101 1.33334 2.66675 1.33334H0.666748V2.66668H2.09408L3.32076 10.7662L3.33617 10.8399C3.41353 11.1278 3.67563 11.333 3.9799 11.333H12.6697L12.7469 11.3286C13.026 11.2962 13.2585 11.0904 13.3205 10.8106L14.6509 4.80884L14.6635 4.73113C14.7032 4.34479 14.3998 3.99789 14.0001 3.99789L3.64408 3.99801L3.32589 1.90013L3.31048 1.82651ZM5.33341 15.3333C4.59703 15.3333 4.00008 14.7364 4.00008 14C4.00008 13.2636 4.59703 12.6667 5.33341 12.6667C6.06979 12.6667 6.66675 13.2636 6.66675 14C6.66675 14.7364 6.06979 15.3333 5.33341 15.3333ZM11.3334 15.3333C10.597 15.3333 10.0001 14.7364 10.0001 14C10.0001 13.2636 10.597 12.6667 11.3334 12.6667C12.0698 12.6667 12.6667 13.2636 12.6667 14C12.6667 14.7364 12.0698 15.3333 11.3334 15.3333Z"/></svg>

<svg width="16" height="16" xmlns="http://www.w3.org/2000/svg"><path d="M3.31 1.827a.667.667 0 0 0-.643-.494h-2v1.334h1.427l1.227 8.1.015.073c.078.288.34.493.644.493h8.69l.077-.004a.667.667 0 0 0 .573-.518l1.33-6.002.014-.078A.667.667 0 0 0 14 3.998H3.644L3.326 1.9l-.016-.073Zm2.023 13.506a1.333 1.333 0 1 1 0-2.666 1.333 1.333 0 0 1 0 2.666Zm6 0a1.333 1.333 0 1 1 0-2.666 1.333 1.333 0 0 1 0 2.666Z"/></svg>
